X:1
T:Title
%%score { ( 1 2 ) | ( 3 4 ) }
L:1/8
M:6/8
K:G
V:1 treble nm="Grand Piano"
V:2 treble 
V:3 treble 
V:4 treble 
V:1
 z3 z z[Q:1/4=81] z/ A/ | B>BB [EA][EG]E | D3 G2 G/A/ | B>BB dBG |[M:5/8] [FA]-[FA]- [FA]3 | %5
[M:1/8] [FA]/[GB]/ |[M:3/4] [Fc]>[Fc] [Fc][FA] [GB][Ac] | [GB]3 [=Fd]2 [Ec] | B>A GD- D/F/A | %9
 [B,G]6 | d>B dG AB | z2 z G2 d | d>B dG AB |[M:5/8] [FA]-[FA]- [FA]3 |[M:1/8] [FA]/[GB]/ | %15
[M:3/4] [Fc]>[Fc] [Fc][FA] [GB][Ac] |[M:7/8] B>dd [=Fd]3 [Ec] |[M:3/4] B>A GD- D/F/A | %18
[M:5/8] [B,G]-[B,G]- [B,G]3 |] %19
V:2
 z3 z2 G | x6 | x6 | x6 |[M:5/8] x5 |[M:1/8] x |[M:3/4] x6 | x6 | x6 | x6 | x6 | D6 | x6 | %13
[M:5/8] x5 |[M:1/8] x |[M:3/4] x6 |[M:7/8] x7 |[M:3/4] x6 |[M:5/8] x5 |] %19
V:3
 z3 z2 B,/C/ | [G,DG]>[G,DG][G,DG][K:bass] [C,C][C,C][E,G,C] | z3 z2[K:treble] .B, | %3
 [G,DG]>[G,DG][G,DG] [B,DG][G,DG][K:bass][A,^CE] |[M:5/8] [D,D]-[D,D]- [D,D]3 |[M:1/8] [D,D] | %6
[M:3/4] [D,A,]>[D,A,] [D,A,][D,D] [D,D][D,D] | [G,D]3 [B,,G,]2 [C,G,] | %8
 [D,G,D]>[D,CD] [D,B,D][D,F,]- [D,F,]/[D,A,C]/[D,F,C] | [G,,G,]6 | %10
 [G,B,G]>[G,DG] [G,B,G][G,B,D] [G,CD][G,D] | [G,B,]4- [G,B,][G,B,G] | %12
 [G,B,G]>[G,DG] [G,B,G][G,B,D] [G,CD][G,DG] |[M:5/8][K:bass] [D,D]-[D,D]- [D,D]3 |[M:1/8] [D,D] | %15
[M:3/4] [D,A,]>[D,A,] [D,A,][D,D] [D,D][D,D] | %16
[M:7/8][K:treble] [G,DG]>[G,B,G][G,B,G][K:bass] [B,,G,]3 [C,G,] | %17
[M:3/4] [D,G,D]>[D,CD] [D,B,D][D,F,]- [D,F,]/[D,A,C]/[D,F,C] | %18
[M:5/8] [G,,D,G,]-[G,,D,G,]- [G,,D,G,]3 |] %19
V:4
 z3 z2 G, | x3[K:bass] x3 | [G,B,]3 [G,B,D]2[K:treble] [G,D]/-[G,CD]/ | x5[K:bass] x |[M:5/8] x5 | %5
[M:1/8] x |[M:3/4] x6 | x6 | x6 | x6 | x6 | x6 | x6 |[M:5/8][K:bass] x5 |[M:1/8] x |[M:3/4] x6 | %16
[M:7/8][K:treble] x3[K:bass] x4 |[M:3/4] x6 |[M:5/8] x5 |] %19

